images/corp-operationalize.svg

<svg height="64" viewBox="0 0 61 64" width="61" xmlns="http://www.w3.org/2000/svg"><path d="m28.3842509 41.1738676c-.0564314.375457-.1098531.7516664-.1098531 1.1444291 0 1.2866363.3438554 2.4777155.899893 3.5333592-5.8944497 5.2240445-11.9589462 8.9161641-17.9624966 10.9988596-1.51160962-1.2979226-2.90207977-2.7433193-4.15184757-4.3211418.03385885-4.9238293 1.41153787-9.9484828 4.11874107-15.0280628.3792192.0654604.7606956.1218918 1.1564679.1218918 1.9118964 0 3.6439648-.7990689 4.9245818-2.0796858 3.4393068 2.054856 7.1607707 3.9343984 11.1245135 5.6303507zm-23.17450237-10.9665057c0 2.3106785 1.04134777 4.3504862 2.63798069 5.711612-2.02626412 3.8523848-3.39717137 7.743143-4.03747986 11.6098238-2.41977922-4.6010417-3.81024936-9.8905466-3.81024936-15.5284215 0-3.2722698.4695094-6.4264099 1.33178147-9.3999694 1.3769266 1.5763176 2.88778377 3.103728 4.51300862 4.5822311-.40028686.9262277-.63504156 1.9450029-.63504156 3.024724zm24.13458897-23.27081198c-2.1579375 0-4.0720912 1.02554698-5.3790428 2.60788394-3.1857417-1.60867162-6.4835938-3.13307233-9.9161288-4.53181909 4.6920843-3.15790216 10.2456883-5.01261477 16.2206468-5.01261477 5.1623462 0 10.0177054 1.37391693 14.2726343 3.78391469-3.4995003 1.75765058-6.8086387 3.63493575-9.9477304 5.59724427-1.303942-1.49054186-3.1654263-2.44460904-5.2503791-2.44460904zm6.7717701 9.60763708c.2084201-.6974924.3536369-1.424329.3536369-2.1917963 0-.5838771-.0812612-1.1451816-.2031531-1.6914377 3.6710519-2.3069164 7.6144794-4.48291188 11.802443-6.50240423 2.045827 1.57857487 3.9178453 3.39641896 5.5317839 5.45729433-2.0872101 4.509999-4.3866023 8.8002916-6.8703371 12.842286-3.2459352-2.7651395-6.8011145-5.409892-10.6143736-7.9139421zm-6.7717701 5.2217872c2.0067012 0 3.8147638-.8750632 5.111934-2.2700478 3.7733809 2.4747057 7.2773957 5.0901139 10.4616325 7.8176324-1.9645657 2.9938749-4.0442516 5.8139409-6.207456 8.4775039-.9946978-.5500182-2.1112874-.8901116-3.312148-.8901116-2.4017212 0-4.5152659 1.2505202-5.8071691 3.1481207-3.7824099-1.6139385-7.2992159-3.4204963-10.5699809-5.3677565.2663563-.7772487.4379078-1.6026523.4379078-2.4739534 0-1.1617347-.2814046-2.2474752-.7403802-3.2278771 2.013473-2.2121116 4.2647104-4.3595151 6.7183485-6.4407058 1.1233614.7719818 2.4641719 1.2271952 3.9073114 1.2271952zm18.1814505 7.8703018c4.5130086 4.1834491 8.2803701 8.5933764 11.2275949 13.1101471-.3619134 1.0676824-.7734866 2.1067729-1.2362242 3.1195288-5.2255493-.8201366-10.2411738-1.9299545-15.0190339-3.2880707.0030097-.088033.0263347-.1715515.0263347-.2603369 0-1.5529926-.4642425-2.9931224-1.2520251-4.184954 2.1797576-2.6718395 4.2692249-5.5031919 6.2533536-8.4963143zm-12.127488 20.0940994c2.6898976 0 5.0088527-1.5755652 6.2209995-3.8727001 4.5438578 1.3016847 9.2871066 2.38893 14.2192126 3.2135811-5.363242 8.9605568-14.7970703 14.9287436-25.5686994 14.9287436-5.7703006 0-11.143324-1.7373353-15.732327-4.6988561 5.688287-2.3129357 11.3735643-5.9486239 16.8918046-10.8318226 1.1354001.7953068 2.5010404 1.2610541 3.9690097 1.2610541zm20.4492411-34.7888407c2.9555015 4.9418874 4.6905795 10.7799057 4.6913319 17.0588415 0 2.2339318-.2189539 4.4121845-.6320319 6.5159478-2.9201378-4.0457565-6.4632784-7.980155-10.5474082-11.7332205 2.3249744-3.7447889 4.4941981-7.7010075 6.4881082-11.8415688zm-39.4854395 9.1599478c-1.1474388-.8223939-2.532642-1.3077041-4.0261936-1.3077041-1.7004667 0-3.24217306.6485851-4.46861589 1.6876756-1.9261924-1.7757086-3.68459539-3.6183825-5.21426304-5.5370507 1.88932389-4.4603393 4.70337061-8.3857087 8.20287093-11.48416982 4.0276984 1.56804101 7.8958841 3.28882302 11.5872512 5.13826872-.1331781.5650666-.222716 1.1451816-.222716 1.7531361 0 1.2256904.3152636 2.3663574.8238987 3.3866375-2.4280558 2.054856-4.6582254 4.1804394-6.6822323 6.3632067zm-4.2383757 9.3931977c-1.9426939 0-3.51755842-1.5748646-3.51755842-3.5175584 0-1.9426939 1.57486452-3.5175584 3.51755842-3.5175584 1.9426938 0 3.5175584 1.5748645 3.5175584 3.5175584 0 1.9426938-1.5748646 3.5175584-3.5175584 3.5175584zm17.3808768-15.7263077c-1.9426939 0-3.5175584-1.5748645-3.5175584-3.5175584 0-1.9426938 1.5748645-3.5175584 3.5175584-3.5175584 1.9426938 0 3.5175584 1.5748646 3.5175584 3.5175584 0 1.9426939-1.5748646 3.5175584-3.5175584 3.5175584zm5.6905442 28.0373859c-1.9426939 0-3.5175584-1.5748646-3.5175584-3.5175584 0-1.9426939 1.5748645-3.5175584 3.5175584-3.5175584s3.5175584 1.5748645 3.5175584 3.5175584c0 1.9426938-1.5748645 3.5175584-3.5175584 3.5175584z" fill="#e0be41"/></svg>

<?xml version="1.0" encoding="UTF-8"?>
<svg width="61px" height="64px" viewBox="0 0 61 64" version="1.1" xmlns="http://www.w3.org/2000/svg" xmlns:xlink="http://www.w3.org/1999/xlink">
    <!-- Generator: Sketch 50.2 (55047) - http://www.bohemiancoding.com/sketch -->
    <title>corp-operationalize</title>
    <desc>Created with Sketch.</desc>
    <defs></defs>
    <g id="Page-1" stroke="none" stroke-width="1" fill="none" fill-rule="evenodd">
        <g id="2.1.1.Corporate" transform="translate(-158.000000, -2062.000000)" fill="#E0BE41" fill-rule="nonzero">
            <g id="Group-Copy" transform="translate(158.000000, 1998.000000)">
                <g id="Strategy-Copy-2" transform="translate(0.000000, 64.000000)">
                    <path d="M28.3842509,41.1738676 C28.3278195,41.5493246 28.2743978,41.925534 28.2743978,42.3182967 C28.2743978,43.604933 28.6182532,44.7960122 29.1742908,45.8516559 C23.2798411,51.0757004 17.2153446,54.76782 11.2117942,56.8505155 C9.70018458,55.5525929 8.30971443,54.1071962 7.05994663,52.5293737 C7.09380548,47.6055444 8.4714845,42.5808909 11.1786877,37.5013109 C11.5579069,37.5667713 11.9393833,37.6232027 12.3351556,37.6232027 C14.247052,37.6232027 15.9791204,36.8241338 17.2597374,35.5435169 C20.6990442,37.5983729 24.4205081,39.4779153 28.3842509,41.1738676 Z M5.20974853,30.2073619 C5.20974853,32.5180404 6.2510963,34.5578481 7.84772922,35.9189739 C5.8214651,39.7713587 4.45055785,43.6621169 3.81024936,47.5287977 C1.39047014,42.927756 0,37.6382511 0,32.0003762 C0,28.7281064 0.469509399,25.5739663 1.33178147,22.6004068 C2.70870807,24.1767244 4.21956524,25.7041348 5.84479009,27.1826379 C5.44450323,28.1088656 5.20974853,29.1276408 5.20974853,30.2073619 Z M29.3443375,6.93654992 C27.1864,6.93654992 25.2722463,7.9620969 23.9652947,9.54443386 C20.779553,7.93576224 17.4817009,6.41136153 14.0491659,5.01261477 C18.7412502,1.85471261 24.2948542,-2.27373675e-13 30.2698127,-2.27373675e-13 C35.4321589,-2.27373675e-13 40.2875181,1.37391693 44.542447,3.78391469 C41.0429467,5.54156527 37.7338083,7.41885044 34.5947166,9.38115896 C33.2907746,7.8906171 31.4292903,6.93654992 29.3443375,6.93654992 Z M36.1161076,16.544187 C36.3245277,15.8466946 36.4697445,15.119858 36.4697445,14.3523907 C36.4697445,13.7685136 36.3884833,13.2072091 36.2665914,12.660953 C39.9376433,10.3540366 43.8810708,8.17804112 48.0690344,6.15854877 C50.1148614,7.73712364 51.9868797,9.55496773 53.6008183,11.6158431 C51.5136082,16.1258421 49.214216,20.4161347 46.7304812,24.4581291 C43.484546,21.6929896 39.9293667,19.0482371 36.1161076,16.544187 Z M29.3443375,21.7659742 C31.3510387,21.7659742 33.1591013,20.890911 34.4562715,19.4959264 C38.2296524,21.9706321 41.7336672,24.5860403 44.917904,27.3135588 C42.9533383,30.3074337 40.8736524,33.1274997 38.710448,35.7910627 C37.7157502,35.2410445 36.5991606,34.9009511 35.3983,34.9009511 C32.9965788,34.9009511 30.8830341,36.1514713 29.5911309,38.0490718 C25.808721,36.4351333 22.291915,34.6285755 19.02115,32.6813153 C19.2875063,31.9040666 19.4590578,31.078663 19.4590578,30.2073619 C19.4590578,29.0456272 19.1776532,27.9598867 18.7186776,26.9794848 C20.7321506,24.7673732 22.983388,22.6199697 25.4370261,20.538779 C26.5603875,21.3107608 27.901198,21.7659742 29.3443375,21.7659742 Z M47.525788,29.636276 C52.0387966,33.8197251 55.8061581,38.2296524 58.7533829,42.7464231 C58.3914695,43.8141055 57.9798963,44.853196 57.5171587,45.8659519 C52.2916094,45.0458153 47.2759849,43.9359974 42.4981248,42.5778812 C42.5011345,42.4898482 42.5244595,42.4063297 42.5244595,42.3175443 C42.5244595,40.7645517 42.060217,39.3244219 41.2724344,38.1325903 C43.452192,35.4607508 45.5416593,32.6293984 47.525788,29.636276 Z M35.3983,49.7303754 C38.0881976,49.7303754 40.4071527,48.1548102 41.6192995,45.8576753 C46.1631573,47.15936 50.9064061,48.2466053 55.8385121,49.0712564 C50.4752701,58.0318132 41.0414418,64 30.2698127,64 C24.4995121,64 19.1264887,62.2626647 14.5374857,59.3011439 C20.2257727,56.9882082 25.91105,53.35252 31.4292903,48.4693213 C32.5646904,49.2646281 33.9303307,49.7303754 35.3983,49.7303754 Z M55.8475411,14.9415347 C58.8030426,19.8834221 60.5381206,25.7214404 60.538873,32.0003762 C60.538873,34.234308 60.3199191,36.4125607 59.9068411,38.516324 C56.9867033,34.4705675 53.4435627,30.536169 49.3594329,26.7831035 C51.6844073,23.0383146 53.853631,19.082096 55.8475411,14.9415347 Z M16.3621016,24.1014825 C15.2146628,23.2790886 13.8294596,22.7937784 12.335908,22.7937784 C10.6354413,22.7937784 9.09373494,23.4423635 7.86729211,24.481454 C5.94109971,22.7057454 4.18269672,20.8630715 2.65302907,18.9444033 C4.54235296,14.484064 7.35639968,10.5586946 10.8559,7.46023348 C14.8835984,9.02827449 18.7517841,10.7490565 22.4431512,12.5985022 C22.3099731,13.1635688 22.2204352,13.7436838 22.2204352,14.3516383 C22.2204352,15.5773287 22.5356988,16.7179957 23.0443339,17.7382758 C20.6162781,19.7931318 18.3861085,21.9187152 16.3621016,24.1014825 Z M12.1237259,33.4946802 C10.181032,33.4946802 8.60616748,31.9198156 8.60616748,29.9771218 C8.60616748,28.0344279 10.181032,26.4595634 12.1237259,26.4595634 C14.0664197,26.4595634 15.6412843,28.0344279 15.6412843,29.9771218 C15.6412843,31.9198156 14.0664197,33.4946802 12.1237259,33.4946802 Z M29.5046027,17.7683725 C27.5619088,17.7683725 25.9870443,16.193508 25.9870443,14.2508141 C25.9870443,12.3081203 27.5619088,10.7332557 29.5046027,10.7332557 C31.4472965,10.7332557 33.0221611,12.3081203 33.0221611,14.2508141 C33.0221611,16.193508 31.4472965,17.7683725 29.5046027,17.7683725 Z M35.1951469,45.8057584 C33.252453,45.8057584 31.6775885,44.2308938 31.6775885,42.2882 C31.6775885,40.3455061 33.252453,38.7706416 35.1951469,38.7706416 C37.1378408,38.7706416 38.7127053,40.3455061 38.7127053,42.2882 C38.7127053,44.2308938 37.1378408,45.8057584 35.1951469,45.8057584 Z" id="corp-operationalize"></path>
                </g>
            </g>
        </g>
    </g>
</svg>
